X:206
T:Merry Reaper of the Moor. EHo.206, The
A:England; East Yorkshire
M:C
L:1/8
Q:1/2=60
B:Edward Holmes MS, c1846, Beverley, Yorkshire.
N:*A??* *??A*= This phrase "Ad Lib"
N:NB2 = Bar count. Hard to determine what is basic tune & what is 'Ad Lib'.
O:
Z:Village Music Project 2018, Jake Wade. Beverley, East Yorks
K:Bb
"^ANDANTE""_p"(F>E) | D2 F2 {Bc}d3c | BA {c/}BG F2 B>A | (AG) ed d>c d>B | A<c C>DC2 F2 |
d3d (3(dcd) (3(fec) |\
"NB2"B2 e2 {def}!fermata!e2 "^*A?ad lib? -"d//c//d//e//d//c//d//e//d//!fermata!c//d//e//f//g//^f// a"^*??A*"g=fy e |
(3{e/}(d^cd) (3eG=c B2"tr" (c2{B/}) | B2d>d B2 ||
%
|: F2 | D2 F2 {Bc}d3c | BA BG F2 B>A | AG ed d>c d>B | {A/}c2z2z2F>E |
D2F2B3A | GA Bc d2zd | c2c/B/A/B/ !fermata!A/ f3/ F>G |\
A<c !turn!G>A F2zF |e3c {B/}A>G A>F |
%
B2zF f3d | B>F B>d {d}!fermata!c2 (3(FBc) | d3d (3(dcd) (3(fec) | \
"NB2"B3e!fermata!e2 "^*A??*"d//c//d//e//f//"_ad lib"g//^f// ag=fg"*^??A*"_ey |
%
{e/}(3(d^cd) (3eG=c B2"tr"c2 | B2"_p"f2-(3fgf (3edc | B2F2-(3FAG (3FGA | B2 d>d B2z2|]

